assets/img/braze_icons/truck-01.svg

<svg fill="none" height="24" viewBox="0 0 24 24" width="24" xmlns="http://www.w3.org/2000/svg"><path clip-rule="evenodd" d="m10.8385 3h-5.67704c-.52713-.00002-.98192-.00003-1.35649.03057-.39534.0323-.78856.10362-1.16694.29641-.56449.28762-1.02343.74656-1.31105 1.31105-.19279.37838-.26411.7716-.29641 1.16694-.030601.37457-.030586.82931-.03057 1.35645v7.83858c0 1.3406.87937 2.4759 2.09276 2.8604.3936 1.7956 1.99346 3.1396 3.90724 3.1396 1.86384 0 3.4299-1.2748 3.874-3h3.1064l.0196.0002h.5355c.2427 1.696 1.7013 2.9998 3.4645 2.9998 1.7841 0 3.2565-1.335 3.4727-3.0605.0946-.021.1929-.0502.2927-.0915.49-.203.8794-.5924 1.0824-1.0824.0969-.2341.1274-.4598.1404-.6502.0118-.1741.0118-.3787.0118-.5887v-2.8638l.0001-.051c.0005-.1899.0011-.4291-.0554-.6644-.049-.2041-.1298-.3991-.2394-.5781-.1265-.2063-.296-.375-.4307-.5089l-.0361-.036-4.0628-4.06279-.036-.03615c-.1339-.13465-.3026-.30419-.5089-.43065-.179-.10966-.374-.19046-.5781-.23946-.2354-.0565-.4745-.05586-.6644-.05535l-.051.00009h-1.3549c-.0036-.0673-.0078-.13239-.013-.19522-.0323-.39534-.1036-.78856-.2964-1.16694-.2876-.56449-.7465-1.02343-1.311-1.31105-.3784-.19279-.7716-.26411-1.167-.29641-.3745-.0306-.8293-.03059-1.3565-.03057zm10.1612 12.6957c.0003-.0563.0003-.1208.0003-.1955v-2.8373c0-.131-.0002-.1963-.0024-.2438l-.0002-.0036-.0024-.0027c-.032-.0351-.0781-.0815-.1707-.1741l-4.0628-4.06277c-.0926-.09263-.139-.1387-.1741-.17074l-.0027-.00242-.0036-.00017c-.0475-.00217-.1128-.00241-.2438-.00241h-1.3373v7.69601c.6125-1.0164 1.7268-1.6962 3-1.6962 1.273 0 2.3872.6796 2.9997 1.6957zm-13.9997-.6957c-1.10457 0-2 .8954-2 2s.89543 2 2 2 2-.8954 2-2-.89543-2-2-2zm9.5 2.5c0-.8284.6716-1.5 1.5-1.5s1.5.6716 1.5 1.5-.6716 1.5-1.5 1.5-1.5-.6716-1.5-1.5z" fill="#801ed7" fill-rule="evenodd"/></svg>

<svg width="24" height="24" viewBox="0 0 24 24" fill="none" xmlns="http://www.w3.org/2000/svg">
<path fill-rule="evenodd" clip-rule="evenodd" d="M10.8385 3H5.16146C4.63433 2.99998 4.17954 2.99997 3.80497 3.03057C3.40963 3.06287 3.01641 3.13419 2.63803 3.32698C2.07354 3.6146 1.6146 4.07354 1.32698 4.63803C1.13419 5.01641 1.06287 5.40963 1.03057 5.80497C0.999969 6.17954 0.999984 6.63428 1 7.16142V15C1 16.3406 1.87937 17.4759 3.09276 17.8604C3.48636 19.656 5.08622 21 7 21C8.86384 21 10.4299 19.7252 10.874 18H13.9804L14 18.0002H14.5355C14.7782 19.6962 16.2368 21 18 21C19.7841 21 21.2565 19.665 21.4727 17.9395C21.5673 17.9185 21.6656 17.8893 21.7654 17.848C22.2554 17.645 22.6448 17.2556 22.8478 16.7656C22.9447 16.5315 22.9752 16.3058 22.9882 16.1154C23 15.9413 23 15.7367 23 15.5267L23 12.6629L23.0001 12.6119C23.0006 12.422 23.0012 12.1828 22.9447 11.9475C22.8957 11.7434 22.8149 11.5484 22.7053 11.3694C22.5788 11.1631 22.4093 10.9944 22.2746 10.8605L22.2385 10.8245L18.1757 6.76171L18.1397 6.72556C18.0058 6.59091 17.8371 6.42137 17.6308 6.29491C17.4518 6.18525 17.2568 6.10445 17.0527 6.05545C16.8173 5.99895 16.5782 5.99959 16.3883 6.0001L16.3373 6.00019H14.9824C14.9788 5.93289 14.9746 5.8678 14.9694 5.80497C14.9371 5.40963 14.8658 5.01641 14.673 4.63803C14.3854 4.07354 13.9265 3.6146 13.362 3.32698C12.9836 3.13419 12.5904 3.06287 12.195 3.03057C11.8205 2.99997 11.3657 2.99998 10.8385 3ZM20.9997 15.6957C21 15.6394 21 15.5749 21 15.5002V12.6629C21 12.5319 20.9998 12.4666 20.9976 12.4191L20.9974 12.4155L20.995 12.4128C20.963 12.3777 20.9169 12.3313 20.8243 12.2387L16.7615 8.17593C16.6689 8.0833 16.6225 8.03723 16.5874 8.00519L16.5847 8.00277L16.5811 8.0026C16.5336 8.00043 16.4683 8.00019 16.3373 8.00019H15V15.6962C15.6125 14.6798 16.7268 14 18 14C19.273 14 20.3872 14.6796 20.9997 15.6957ZM7 15C5.89543 15 5 15.8954 5 17C5 18.1046 5.89543 19 7 19C8.10457 19 9 18.1046 9 17C9 15.8954 8.10457 15 7 15ZM16.5 17.5C16.5 16.6716 17.1716 16 18 16C18.8284 16 19.5 16.6716 19.5 17.5C19.5 18.3284 18.8284 19 18 19C17.1716 19 16.5 18.3284 16.5 17.5Z" fill="#801ED7"/>
</svg>
